icons/networks/logos/eth.svg

<svg width="71" height="20" viewBox="0 0 71 20" fill="none" xmlns="http://www.w3.org/2000/svg">
<path fill-rule="evenodd" clip-rule="evenodd" d="M6 7.46667L0 10.4L6 0V7.46667Z" fill="#828083"/>
<path fill-rule="evenodd" clip-rule="evenodd" d="M6 7.18848L0 10.1331L6 13.6098V7.18848Z" fill="#353336"/>
<path fill-rule="evenodd" clip-rule="evenodd" d="M6 15.0457L0 11.1924L6 20.0004V15.0457Z" fill="#848285"/>
<path fill-rule="evenodd" clip-rule="evenodd" d="M6 7.46667L12 10.4L6 0V7.46667Z" fill="#2F2D30"/>
<path fill-rule="evenodd" clip-rule="evenodd" d="M6 7.18848L12 10.1298L6 13.6065V7.18848Z" fill="#121212"/>
<path fill-rule="evenodd" clip-rule="evenodd" d="M6 15.0457L12 11.1924L6 20.0004V15.0457Z" fill="#302E31"/>
<path fill-rule="evenodd" clip-rule="evenodd" d="M19.7833 8.88615C19.3077 9.4256 19.0459 10.1205 19.0474 10.8397C19.0488 11.5589 19.3135 12.2527 19.7913 12.7901C20.0569 13.0792 20.385 13.3038 20.7506 13.4468C21.1162 13.5898 21.5096 13.6474 21.9008 13.6153C22.2921 13.5831 22.6708 13.462 23.0081 13.2613C23.3455 13.0605 23.6325 12.7854 23.8473 12.4568C23.8671 12.4231 23.8776 12.3847 23.8778 12.3455C23.8779 12.3064 23.8676 12.2679 23.8481 12.234C23.8285 12.2002 23.8003 12.1721 23.7663 12.1527C23.7323 12.1332 23.6938 12.1232 23.6547 12.1235C23.6159 12.1244 23.5781 12.135 23.5445 12.1542C23.5108 12.1734 23.4825 12.2006 23.462 12.2335C23.2565 12.5306 22.9798 12.7714 22.6572 12.9339C22.3346 13.0964 21.9764 13.1753 21.6153 13.1635C21.3448 13.1679 21.0764 13.1154 20.8274 13.0095C20.5785 12.9037 20.3545 12.7467 20.17 12.5488C19.7804 12.1539 19.5416 11.6349 19.4953 11.0821H23.9747C24.0062 11.0877 24.0385 11.0859 24.0692 11.0768C24.0999 11.0677 24.128 11.0515 24.1514 11.0297C24.1747 11.0078 24.1926 10.9808 24.2038 10.9508C24.2149 10.9208 24.2188 10.8886 24.2153 10.8568C24.2251 10.1321 23.9591 9.43083 23.4713 8.89482C23.2415 8.63218 22.9583 8.42154 22.6407 8.27696C22.3231 8.13238 21.9783 8.05718 21.6293 8.05636C21.2803 8.05554 20.9351 8.12912 20.6168 8.27221C20.2985 8.41529 20.0144 8.62459 19.7833 8.88615ZM20.17 9.13748C20.3564 8.94175 20.5806 8.78593 20.8291 8.67946C21.0775 8.57298 21.345 8.51808 21.6153 8.51808C21.8856 8.51808 22.1531 8.57298 22.4016 8.67946C22.65 8.78593 22.8742 8.94175 23.0607 9.13748C23.4503 9.53639 23.6888 10.0585 23.7353 10.6141H19.4953C19.5418 10.0585 19.7804 9.53639 20.17 9.13748ZM27.6367 6.44015C27.6367 6.38074 27.6131 6.32376 27.571 6.28176C27.529 6.23975 27.4721 6.21615 27.4127 6.21615C27.3532 6.21615 27.2963 6.23975 27.2543 6.28176C27.2123 6.32376 27.1887 6.38074 27.1887 6.44015V8.18215H26.0367C25.9748 8.18215 25.9154 8.20673 25.8717 8.25049C25.8279 8.29425 25.8033 8.3536 25.8033 8.41548C25.8033 8.47737 25.8279 8.53672 25.8717 8.58047C25.9154 8.62423 25.9748 8.64882 26.0367 8.64882H27.1887V13.3221C27.1887 13.3816 27.2123 13.4385 27.2543 13.4805C27.2963 13.5225 27.3532 13.5461 27.4127 13.5461C27.4721 13.5461 27.529 13.5225 27.571 13.4805C27.6131 13.4385 27.6367 13.3816 27.6367 13.3221V8.64882H28.8367C28.8985 8.64882 28.9579 8.62423 29.0016 8.58047C29.0454 8.53672 29.07 8.47737 29.07 8.41548C29.07 8.3536 29.0454 8.29425 29.0016 8.25049C28.9579 8.20673 28.8985 8.18215 28.8367 8.18215H27.6367V6.44015ZM31.4127 9.22215V3.92615C31.4127 3.86674 31.3891 3.80976 31.3471 3.76776C31.305 3.72575 31.2481 3.70215 31.1887 3.70215C31.1293 3.70215 31.0723 3.72575 31.0303 3.76776C30.9883 3.80976 30.9647 3.86674 30.9647 3.92615V13.2861C30.9647 13.3456 30.9883 13.4025 31.0303 13.4445C31.0723 13.4865 31.1293 13.5101 31.1887 13.5101C31.2481 13.5101 31.305 13.4865 31.3471 13.4445C31.3891 13.4025 31.4127 13.3456 31.4127 13.2861V10.9581C31.353 10.3708 31.494 9.78051 31.8127 9.28348C31.9735 9.04098 32.1946 8.84442 32.4543 8.71306C32.714 8.58171 33.0033 8.52006 33.294 8.53415C33.5278 8.52805 33.7594 8.58026 33.968 8.68605C34.1765 8.79185 34.3555 8.94791 34.4887 9.14015C34.7728 9.51566 34.919 9.97754 34.9027 10.4481V13.2868C34.9027 13.3462 34.9263 13.4032 34.9683 13.4452C35.0103 13.4872 35.0672 13.5108 35.1267 13.5108C35.1861 13.5108 35.243 13.4872 35.2851 13.4452C35.3271 13.4032 35.3507 13.3462 35.3507 13.2868V10.4381C35.3672 9.84706 35.1745 9.26911 34.8067 8.80615C34.6304 8.57131 34.4003 8.38216 34.1359 8.25456C33.8714 8.12696 33.5802 8.06464 33.2867 8.07282C32.897 8.06501 32.5133 8.16948 32.1814 8.37374C31.8495 8.578 31.5833 8.87344 31.4147 9.22482L31.4127 9.22215ZM38.1327 8.88882C37.657 9.42826 37.3952 10.1231 37.3967 10.8423C37.3982 11.5615 37.6628 12.2553 38.1407 12.7928C38.4063 13.0819 38.7344 13.3065 39.0999 13.4495C39.4655 13.5925 39.8589 13.6501 40.2502 13.6179C40.6414 13.5858 41.0201 13.4647 41.3575 13.2639C41.6948 13.0632 41.9818 12.788 42.1967 12.4595C42.2165 12.4257 42.227 12.3873 42.2271 12.3482C42.2272 12.3091 42.217 12.2706 42.1974 12.2367C42.1778 12.2028 42.1496 12.1748 42.1156 12.1553C42.0816 12.1359 42.0431 12.1258 42.004 12.1261C41.9653 12.1271 41.9274 12.1376 41.8937 12.1568C41.8601 12.176 41.8318 12.2033 41.8113 12.2361C41.6058 12.5333 41.3289 12.7741 41.0062 12.9366C40.6835 13.0991 40.3251 13.178 39.964 13.1661C39.6936 13.1704 39.4253 13.1179 39.1765 13.0121C38.9276 12.9062 38.7037 12.7493 38.5193 12.5515C38.1294 12.1568 37.8906 11.6377 37.8447 11.0848H42.324C42.3555 11.0904 42.3879 11.0886 42.4185 11.0794C42.4492 11.0703 42.4773 11.0542 42.5007 11.0323C42.524 11.0105 42.542 10.9835 42.5531 10.9535C42.5642 10.9235 42.5681 10.8913 42.5647 10.8595C42.5744 10.1348 42.3085 9.43349 41.8207 8.89748C41.591 8.63479 41.3081 8.42404 40.9906 8.2793C40.6731 8.13456 40.3285 8.05914 39.9796 8.05807C39.6306 8.05699 39.2855 8.13029 38.9672 8.27308C38.6488 8.41587 38.3646 8.62487 38.1333 8.88615L38.1327 8.88882ZM38.5193 9.14015C38.7057 8.94442 38.93 8.78859 39.1784 8.68212C39.4269 8.57565 39.6944 8.52075 39.9647 8.52075C40.235 8.52075 40.5024 8.57565 40.7509 8.68212C40.9993 8.78859 41.2236 8.94442 41.41 9.14015C41.7996 9.53905 42.0381 10.0612 42.0847 10.6168H37.8447C37.8909 10.0598 38.1305 9.53643 38.522 9.13748L38.5193 9.14015ZM45.9247 8.54815C45.6061 8.76729 45.3387 9.0527 45.1407 9.38482V8.40015C45.1407 8.34074 45.1171 8.28376 45.075 8.24176C45.033 8.19975 44.9761 8.17615 44.9167 8.17615C44.8572 8.17615 44.8003 8.19975 44.7583 8.24176C44.7163 8.28376 44.6927 8.34074 44.6927 8.40015V13.2668C44.6927 13.3262 44.7163 13.3832 44.7583 13.4252C44.8003 13.4672 44.8572 13.4908 44.9167 13.4908C44.9761 13.4908 45.033 13.4672 45.075 13.4252C45.1171 13.3832 45.1407 13.3262 45.1407 13.2668V11.1335C45.119 10.5504 45.2824 9.97543 45.6073 9.49082C45.769 9.24996 45.9819 9.04784 46.2309 8.89893C46.4798 8.75002 46.7586 8.65801 47.0473 8.62948C47.0769 8.62808 47.1059 8.62069 47.1326 8.60776C47.1593 8.59484 47.183 8.57664 47.2025 8.55427C47.2219 8.5319 47.2366 8.50583 47.2457 8.47762C47.2548 8.44941 47.2581 8.41966 47.2553 8.39015C47.2571 8.35955 47.2518 8.32895 47.2398 8.30073C47.2279 8.2725 47.2096 8.2474 47.1864 8.22736C47.1632 8.20732 47.1357 8.19289 47.106 8.18516C47.0764 8.17744 47.0453 8.17663 47.0153 8.18282C46.6244 8.19186 46.2452 8.31847 45.9273 8.54615L45.9247 8.54815ZM49.3647 8.88882C48.889 9.42826 48.6272 10.1231 48.6287 10.8423C48.6302 11.5615 48.8948 12.2553 49.3727 12.7928C49.6383 13.0819 49.9664 13.3065 50.3319 13.4495C50.6975 13.5925 51.0909 13.6501 51.4822 13.6179C51.8734 13.5858 52.2521 13.4647 52.5895 13.2639C52.9268 13.0632 53.2138 12.788 53.4287 12.4595C53.4485 12.4257 53.459 12.3873 53.4591 12.3482C53.4592 12.3091 53.449 12.2706 53.4294 12.2367C53.4098 12.2028 53.3816 12.1748 53.3476 12.1553C53.3136 12.1359 53.2751 12.1258 53.236 12.1261C53.1972 12.1271 53.1592 12.1377 53.1255 12.1569C53.0918 12.1761 53.0633 12.2033 53.0427 12.2361C52.8373 12.5333 52.5606 12.7742 52.238 12.9367C51.9153 13.0992 51.557 13.1781 51.196 13.1661C50.9256 13.1704 50.6573 13.1179 50.4085 13.0121C50.1596 12.9062 49.9357 12.7493 49.7513 12.5515C49.3614 12.1568 49.1226 11.6377 49.0767 11.0848H53.556C53.5875 11.0904 53.6199 11.0886 53.6505 11.0794C53.6812 11.0703 53.7093 11.0542 53.7327 11.0323C53.756 11.0105 53.774 10.9835 53.7851 10.9535C53.7962 10.9235 53.8001 10.8913 53.7967 10.8595C53.8064 10.1348 53.5405 9.43349 53.0527 8.89748C52.823 8.63512 52.5402 8.42467 52.2229 8.28013C51.9056 8.13559 51.5612 8.06027 51.2126 8.0592C50.8639 8.05813 50.519 8.13132 50.2009 8.27391C49.8827 8.41649 49.5986 8.6252 49.3673 8.88615L49.3647 8.88882ZM49.7513 9.14015C49.9377 8.94442 50.162 8.78859 50.4104 8.68212C50.6589 8.57565 50.9264 8.52075 51.1967 8.52075C51.467 8.52075 51.7344 8.57565 51.9829 8.68212C52.2313 8.78859 52.4556 8.94442 52.642 9.14015C53.0316 9.53905 53.2701 10.0612 53.3167 10.6168H49.0767C49.1229 10.0598 49.3625 9.53643 49.754 9.13748L49.7513 9.14015ZM59.7807 8.40682V10.2308C59.7807 12.2041 59.1618 13.1908 57.924 13.1908C57.6869 13.1983 57.4516 13.1466 57.2394 13.0405C57.0273 12.9343 56.8449 12.7771 56.7087 12.5828C56.4327 12.2024 56.2918 11.7405 56.3087 11.2708V8.40415C56.3087 8.37473 56.3029 8.3456 56.2916 8.31843C56.2803 8.29125 56.2638 8.26656 56.243 8.24576C56.2222 8.22496 56.1976 8.20846 56.1704 8.1972C56.1432 8.18594 56.1141 8.18015 56.0847 8.18015C56.0552 8.18015 56.0261 8.18594 55.9989 8.1972C55.9718 8.20846 55.9471 8.22496 55.9263 8.24576C55.9055 8.26656 55.889 8.29125 55.8777 8.31843C55.8664 8.3456 55.8607 8.37473 55.8607 8.40415V11.2761C55.844 11.8688 56.0368 12.4483 56.4053 12.9128C56.5807 13.1488 56.8104 13.339 57.0748 13.4674C57.3393 13.5959 57.6308 13.6588 57.9247 13.6508C58.3258 13.6516 58.7177 13.531 59.0491 13.3049C59.3804 13.0789 59.6357 12.7579 59.7813 12.3841V13.3121C59.7813 13.3716 59.8049 13.4285 59.8469 13.4705C59.8889 13.5125 59.9459 13.5361 60.0053 13.5361C60.0647 13.5361 60.1217 13.5125 60.1637 13.4705C60.2057 13.4285 60.2293 13.3716 60.2293 13.3121V8.40682C60.2293 8.34741 60.2057 8.29043 60.1637 8.24842C60.1217 8.20641 60.0647 8.18282 60.0053 8.18282C59.9459 8.18282 59.8889 8.20641 59.8469 8.24842C59.8049 8.29043 59.7813 8.34741 59.7813 8.40682H59.7807ZM66.644 9.49481C66.5416 9.07316 66.2955 8.70035 65.948 8.44047C65.6005 8.18059 65.1734 8.04988 64.74 8.07082C64.3524 8.06175 63.9703 8.1636 63.6386 8.36438C63.307 8.56517 63.0396 8.85652 62.868 9.20415V8.40015C62.868 8.34074 62.8444 8.28376 62.8024 8.24176C62.7604 8.19975 62.7034 8.17615 62.644 8.17615C62.5846 8.17615 62.5276 8.19975 62.4856 8.24176C62.4436 8.28376 62.42 8.34074 62.42 8.40015V13.2868C62.42 13.3462 62.4436 13.4032 62.4856 13.4452C62.5276 13.4872 62.5846 13.5108 62.644 13.5108C62.7034 13.5108 62.7604 13.4872 62.8024 13.4452C62.8444 13.4032 62.868 13.3462 62.868 13.2868V11.0201C62.8152 10.3979 62.9548 9.77443 63.268 9.23415C63.4339 9.00218 63.656 8.81611 63.9135 8.69333C64.1709 8.57056 64.4553 8.5151 64.74 8.53215C64.9729 8.52532 65.204 8.5755 65.4132 8.67832C65.6223 8.78115 65.8032 8.93351 65.94 9.12215C66.2252 9.49719 66.3722 9.95924 66.356 10.4301V13.2868C66.356 13.3462 66.3796 13.4032 66.4216 13.4452C66.4636 13.4872 66.5206 13.5108 66.58 13.5108C66.6394 13.5108 66.6964 13.4872 66.7384 13.4452C66.7804 13.4032 66.804 13.3462 66.804 13.2868V11.0868C66.7882 10.491 66.9318 9.90182 67.22 9.38015C67.3589 9.12032 67.5669 8.9039 67.821 8.75473C68.0751 8.60558 68.3654 8.52947 68.66 8.53482C68.8933 8.52562 69.1252 8.57476 69.3347 8.67778C69.5443 8.7808 69.7248 8.93445 69.86 9.12482C70.1452 9.49986 70.2922 9.96191 70.276 10.4328V13.2868C70.276 13.3462 70.2996 13.4032 70.3416 13.4452C70.3836 13.4872 70.4406 13.5108 70.5 13.5108C70.5594 13.5108 70.6164 13.4872 70.6584 13.4452C70.7004 13.4032 70.724 13.3462 70.724 13.2868V10.4201C70.7374 9.81954 70.5392 9.23334 70.164 8.76415C69.9857 8.53803 69.7566 8.35715 69.4953 8.23622C69.2339 8.11528 68.9478 8.0577 68.66 8.06815C68.2165 8.06147 67.7823 8.19577 67.42 8.45168C67.0577 8.70759 66.786 9.07191 66.644 9.49215V9.49481Z" fill="#1B1635"/>
</svg>

<svg viewBox="0 0 71 20" fill="none" xmlns="http://www.w3.org/2000/svg">
  <path fill-rule="evenodd" clip-rule="evenodd" d="M6 7.467 0 10.4 6 0v7.467Z" fill="#828083"/>
  <path fill-rule="evenodd" clip-rule="evenodd" d="m6 7.188-6 2.945 6 3.477V7.188Z" fill="#353336"/>
  <path fill-rule="evenodd" clip-rule="evenodd" d="m6 15.046-6-3.854L6 20v-4.954Z" fill="#848285"/>
  <path fill-rule="evenodd" clip-rule="evenodd" d="m6 7.467 6 2.933L6 0v7.467Z" fill="#2F2D30"/>
  <path fill-rule="evenodd" clip-rule="evenodd" d="m6 7.188 6 2.942-6 3.476V7.189Z" fill="#121212"/>
  <path fill-rule="evenodd" clip-rule="evenodd" d="m6 15.046 6-3.854L6 20v-4.954Z" fill="#302E31"/>
  <path fill-rule="evenodd" clip-rule="evenodd" d="M19.783 8.886a2.945 2.945 0 0 0 .008 3.904 2.578 2.578 0 0 0 4.056-.333.222.222 0 0 0-.192-.334.233.233 0 0 0-.193.11 2.16 2.16 0 0 1-1.847.93 1.933 1.933 0 0 1-1.445-.614 2.37 2.37 0 0 1-.675-1.467h4.48a.206.206 0 0 0 .24-.225 2.858 2.858 0 0 0-.744-1.962 2.455 2.455 0 0 0-3.688-.009Zm.387.251a1.995 1.995 0 0 1 2.89 0 2.4 2.4 0 0 1 .675 1.477h-4.24a2.4 2.4 0 0 1 .675-1.477Zm7.467-2.697a.224.224 0 1 0-.448 0v1.742h-1.152a.233.233 0 1 0 0 .467h1.152v4.673a.224.224 0 1 0 .448 0V8.65h1.2a.233.233 0 0 0 0-.467h-1.2V6.44Zm3.776 2.782V3.926a.224.224 0 1 0-.448 0v9.36a.224.224 0 1 0 .448 0v-2.328a2.613 2.613 0 0 1 .4-1.675 1.68 1.68 0 0 1 1.481-.749 1.409 1.409 0 0 1 1.195.606c.284.376.43.838.414 1.308v2.839a.224.224 0 0 0 .448 0v-2.849a2.511 2.511 0 0 0-.544-1.632 1.837 1.837 0 0 0-1.52-.733 2.031 2.031 0 0 0-1.872 1.152l-.002-.003Zm6.72-.333a2.944 2.944 0 0 0 .008 3.904 2.578 2.578 0 0 0 4.056-.333.221.221 0 0 0-.303-.303.234.234 0 0 0-.083.08 2.16 2.16 0 0 1-1.847.93 1.934 1.934 0 0 1-1.445-.615 2.365 2.365 0 0 1-.674-1.467h4.479a.204.204 0 0 0 .177-.053.206.206 0 0 0 .064-.172 2.858 2.858 0 0 0-.744-1.963 2.456 2.456 0 0 0-3.688-.01v.002Zm.386.251a1.996 1.996 0 0 1 2.891 0 2.4 2.4 0 0 1 .675 1.477h-4.24c.046-.557.285-1.08.677-1.48l-.003.003Zm7.406-.592c-.319.22-.586.505-.784.837V8.4a.224.224 0 1 0-.448 0v4.867a.224.224 0 0 0 .448 0v-2.133a2.765 2.765 0 0 1 .466-1.643 1.967 1.967 0 0 1 1.44-.862.22.22 0 0 0 .208-.239.199.199 0 0 0-.149-.205.2.2 0 0 0-.09-.002c-.392.009-.77.135-1.089.363l-.002.002Zm3.44.34a2.944 2.944 0 0 0 .008 3.905 2.578 2.578 0 0 0 4.056-.333.221.221 0 0 0-.303-.303.235.235 0 0 0-.083.08 2.159 2.159 0 0 1-1.847.93 1.934 1.934 0 0 1-1.445-.615 2.365 2.365 0 0 1-.674-1.467h4.479a.204.204 0 0 0 .177-.053.206.206 0 0 0 .064-.172 2.858 2.858 0 0 0-.744-1.963 2.456 2.456 0 0 0-3.686-.01l-.002.002Zm.386.252a1.996 1.996 0 0 1 2.891 0 2.4 2.4 0 0 1 .675 1.477h-4.24c.046-.557.285-1.08.677-1.48l-.003.003Zm10.03-.733v1.824c0 1.973-.62 2.96-1.857 2.96a1.43 1.43 0 0 1-1.215-.608 2.105 2.105 0 0 1-.4-1.312V8.404a.223.223 0 0 0-.31-.207.225.225 0 0 0-.138.207v2.872a2.52 2.52 0 0 0 .544 1.637 1.83 1.83 0 0 0 1.52.738 1.988 1.988 0 0 0 1.856-1.267v.928a.224.224 0 1 0 .448 0V8.407a.224.224 0 0 0-.448 0Zm6.863 1.088A1.867 1.867 0 0 0 64.74 8.07a2.035 2.035 0 0 0-1.872 1.133V8.4a.224.224 0 1 0-.448 0v4.887a.224.224 0 0 0 .448 0V11.02a3.047 3.047 0 0 1 .4-1.786 1.685 1.685 0 0 1 1.472-.702 1.431 1.431 0 0 1 1.2.59c.285.375.432.837.416 1.308v2.857a.224.224 0 0 0 .448 0v-2.2a3.346 3.346 0 0 1 .416-1.707 1.6 1.6 0 0 1 1.44-.845 1.404 1.404 0 0 1 1.2.59c.285.375.432.837.416 1.308v2.854a.224.224 0 0 0 .448 0V10.42a2.56 2.56 0 0 0-.56-1.656 1.83 1.83 0 0 0-1.504-.696 2.095 2.095 0 0 0-2.016 1.424v.003Z" fill="#1B1635"/>
</svg>
